assets/presets/Neon/Neon Rain.xmp
<?xpacket begin="﻿" id="W5M0MpCehiHzreSzNTczkc9d"?>
<x:xmpmeta xmlns:x="adobe:ns:meta/" x:xmptk="Lightbox XMP (fallback substrate)">
 <rdf:RDF xmlns:rdf="http://www.w3.org/1999/02/22-rdf-syntax-ns#">
  <rdf:Description rdf:about=""
   xmlns:lb="http://lightbox.app/ns/1.0/"
   xmlns:crs="http://ns.adobe.com/camera-raw-settings/1.0/">
   <crs:Blacks2012>-24</crs:Blacks2012>
   <crs:Clarity2012>18</crs:Clarity2012>
   <crs:ColorGradeBalance>-10</crs:ColorGradeBalance>
   <crs:ColorGradeBlending>35</crs:ColorGradeBlending>
   <crs:ColorGradeGlobalHue>300</crs:ColorGradeGlobalHue>
   <crs:ColorGradeGlobalSat>6</crs:ColorGradeGlobalSat>
   <crs:ColorGradeHighlightHue>330</crs:ColorGradeHighlightHue>
   <crs:ColorGradeHighlightLum>-4</crs:ColorGradeHighlightLum>
   <crs:ColorGradeHighlightSat>26</crs:ColorGradeHighlightSat>
   <crs:ColorGradeShadowHue>205</crs:ColorGradeShadowHue>
   <crs:ColorGradeShadowLum>-6</crs:ColorGradeShadowLum>
   <crs:ColorGradeShadowSat>38</crs:ColorGradeShadowSat>
   <crs:Contrast2012>26</crs:Contrast2012>
   <crs:HasSettings>True</crs:HasSettings>
   <crs:Highlights2012>26</crs:Highlights2012>
   <crs:LuminanceAdjustmentBlue>-8</crs:LuminanceAdjustmentBlue>
   <crs:ProcessVersion>11.0</crs:ProcessVersion>
   <crs:Saturation>-4</crs:Saturation>
   <crs:SaturationAdjustmentAqua>22</crs:SaturationAdjustmentAqua>
   <crs:SaturationAdjustmentBlue>20</crs:SaturationAdjustmentBlue>
   <crs:SaturationAdjustmentMagenta>24</crs:SaturationAdjustmentMagenta>
   <crs:SaturationAdjustmentOrange>-14</crs:SaturationAdjustmentOrange>
   <crs:SaturationAdjustmentPurple>16</crs:SaturationAdjustmentPurple>
   <crs:Shadows2012>-10</crs:Shadows2012>
   <crs:ToneCurvePV2012>
    <rdf:Seq>
     <rdf:li>0, 5</rdf:li>
     <rdf:li>46, 31</rdf:li>
     <rdf:li>128, 128</rdf:li>
     <rdf:li>204, 219</rdf:li>
     <rdf:li>255, 245</rdf:li>
    </rdf:Seq>
   </crs:ToneCurvePV2012>
   <crs:Version>15.0</crs:Version>
   <crs:Vibrance>14</crs:Vibrance>
   <crs:Whites2012>-16</crs:Whites2012>
   <lb:CreatorTool>Lightbox 0.1.0</lb:CreatorTool>
   <lb:PresetGroup>Neon</lb:PresetGroup>
   <lb:PresetGroups>curve,grade,hsl,presence,tone</lb:PresetGroups>
   <lb:PresetId>cdeeac19-a4cf-4d6f-8af7-e62ea75e181f</lb:PresetId>
   <lb:PresetName>Neon Rain</lb:PresetName>
   <lb:PresetOrigin>lightbox</lb:PresetOrigin>
   <lb:ProcessVersion>1</lb:ProcessVersion>
   <lb:RecipeCbor>a966736368656d6101627076016c626173655f70726f66696c65a4646b696e64664d61747269786269646b6d61747269782d62617365686c6f6f6b5f726566f66b6c6f6f6b5f616d6f756e74f93c0066676c6f62616cb26d77686974655f62616c616e636566417353686f74686578706f73757265f9000068636f6e7472617374f94e806a686967686c6967687473f94e8067736861646f7773f9c90066776869746573f9cc0066626c61636b73f9ce006a746f6e655f6375727665a563726762a166706f696e747385a26178f900006179fa3ca3d70aa26178fa3e3851ec6179fa3df5c28fa26178f938006179f93800a26178fa3f4ccccd6179fa3f5c28f6a26178f93c006179fa3f75c28f6172a166706f696e747382a26178f900006179f90000a26178f93c006179f93c006167a166706f696e747382a26178f900006179f90000a26178f93c006179f93c006162a166706f696e747382a26178f900006179f90000a26178f93c006179f93c006a706172616d6574726963a56a686967686c6967687473f90000666c6967687473f90000656461726b73f9000067736861646f7773f900006673706c69747383f93400f93800f93a006368736ca16562616e647388a363687565f9000063736174f90000636c756df90000a363687565f9000063736174f9cb00636c756df90000a363687565f9000063736174f90000636c756df90000a363687565f9000063736174f90000636c756df90000a363687565f9000063736174f94d80636c756df90000a363687565f9000063736174f94d00636c756df9c800a363687565f9000063736174f94c00636c756df90000a363687565f9000063736174f94e00636c756df900006b636f6c6f725f6772616465a667736861646f7773a363687565f95a6863736174f950c0636c756df9c600686d6964746f6e6573a363687565f9000063736174f90000636c756df900006a686967686c6967687473a363687565f95d2863736174f94e80636c756df9c40066676c6f62616ca363687565f95cb063736174f94600636c756df9000065626c656e64f950606762616c616e6365f9c9006974726561746d656e7465436f6c6f72626277a1677765696768747388f90000f90000f90000f90000f90000f90000f90000f900006876696272616e6365f94b006a73617475726174696f6ef9c4006870726573656e6365a367636c6172697479f94c806774657874757265f9000066646568617a65f900006664657461696ca2677368617270656ea466616d6f756e74f9000066726164697573f93c006664657461696cf90000676d61736b696e67f90000626e72a4646c756d61f900006b6c756d615f64657461696cf90000666368726f6d61f900006d6368726f6d615f64657461696cf90000666f7074696373a46c6c656e735f70726f66696c65f6626361f46864656672696e6765f900006d7669676e657474655f636f7272f900006765666665637473a371706f737463726f705f7669676e65747465a566616d6f756e74f90000686d6964706f696e74f9524069726f756e646e657373f900006766656174686572f952406a686967686c6967687473f9000065677261696ea366616d6f756e74f900006473697a65f9000069726f7567686e657373f900006c63726561746976655f6c7574f66867656f6d65747279a56463726f70a4646c656674f9000063746f70f90000657269676874f93c0066626f74746f6df93c0065616e676c65f9000064666c6970644e6f6e656775707269676874634f6666697472616e73666f726da768766572746963616cf900006a686f72697a6f6e74616cf9000066726f74617465f9000066617370656374f90000657363616c65f9000068785f6f6666736574f9000068795f6f6666736574f90000656d61736b7380677265746f75636880686c625f6578747261a06f786d705f706173737468726f756768a0</lb:RecipeCbor>
   <lb:Schema>1</lb:Schema>
  </rdf:Description>
 </rdf:RDF>
</x:xmpmeta>
<?xpacket end="w"?>