assets/presets/Atmosphere/Monsoon.xmp
<?xpacket begin="﻿" id="W5M0MpCehiHzreSzNTczkc9d"?>
<x:xmpmeta xmlns:x="adobe:ns:meta/" x:xmptk="Lightbox XMP (fallback substrate)">
 <rdf:RDF xmlns:rdf="http://www.w3.org/1999/02/22-rdf-syntax-ns#">
  <rdf:Description rdf:about=""
   xmlns:lb="http://lightbox.app/ns/1.0/"
   xmlns:crs="http://ns.adobe.com/camera-raw-settings/1.0/">
   <crs:Blacks2012>-6</crs:Blacks2012>
   <crs:Clarity2012>22</crs:Clarity2012>
   <crs:ColorGradeBalance>12</crs:ColorGradeBalance>
   <crs:ColorGradeBlending>55</crs:ColorGradeBlending>
   <crs:ColorGradeHighlightHue>204</crs:ColorGradeHighlightHue>
   <crs:ColorGradeHighlightLum>2</crs:ColorGradeHighlightLum>
   <crs:ColorGradeHighlightSat>14</crs:ColorGradeHighlightSat>
   <crs:ColorGradeShadowHue>222</crs:ColorGradeShadowHue>
   <crs:ColorGradeShadowLum>-3</crs:ColorGradeShadowLum>
   <crs:ColorGradeShadowSat>30</crs:ColorGradeShadowSat>
   <crs:Contrast2012>14</crs:Contrast2012>
   <crs:Dehaze>-10</crs:Dehaze>
   <crs:HasSettings>True</crs:HasSettings>
   <crs:Highlights2012>-28</crs:Highlights2012>
   <crs:LuminanceAdjustmentAqua>-8</crs:LuminanceAdjustmentAqua>
   <crs:LuminanceAdjustmentBlue>-10</crs:LuminanceAdjustmentBlue>
   <crs:LuminanceAdjustmentGreen>-8</crs:LuminanceAdjustmentGreen>
   <crs:LuminanceAdjustmentOrange>-6</crs:LuminanceAdjustmentOrange>
   <crs:ProcessVersion>11.0</crs:ProcessVersion>
   <crs:Saturation>-8</crs:Saturation>
   <crs:SaturationAdjustmentAqua>10</crs:SaturationAdjustmentAqua>
   <crs:SaturationAdjustmentBlue>14</crs:SaturationAdjustmentBlue>
   <crs:SaturationAdjustmentGreen>-24</crs:SaturationAdjustmentGreen>
   <crs:SaturationAdjustmentOrange>-16</crs:SaturationAdjustmentOrange>
   <crs:SaturationAdjustmentYellow>-22</crs:SaturationAdjustmentYellow>
   <crs:Shadows2012>10</crs:Shadows2012>
   <crs:Texture>24</crs:Texture>
   <crs:ToneCurvePV2012>
    <rdf:Seq>
     <rdf:li>0, 10</rdf:li>
     <rdf:li>71, 66</rdf:li>
     <rdf:li>168, 184</rdf:li>
     <rdf:li>255, 245</rdf:li>
    </rdf:Seq>
   </crs:ToneCurvePV2012>
   <crs:Version>15.0</crs:Version>
   <crs:Vibrance>-4</crs:Vibrance>
   <crs:Whites2012>-8</crs:Whites2012>
   <lb:CreatorTool>Lightbox 0.1.0</lb:CreatorTool>
   <lb:PresetGroup>Atmosphere</lb:PresetGroup>
   <lb:PresetGroups>curve,grade,hsl,presence,tone</lb:PresetGroups>
   <lb:PresetId>c9eaef2f-6a5e-47fe-b01f-1a1dc12de13e</lb:PresetId>
   <lb:PresetName>Monsoon</lb:PresetName>
   <lb:PresetOrigin>lightbox</lb:PresetOrigin>
   <lb:ProcessVersion>1</lb:ProcessVersion>
   <lb:RecipeCbor>a966736368656d6101627076016c626173655f70726f66696c65a4646b696e64664d61747269786269646b6d61747269782d62617365686c6f6f6b5f726566f66b6c6f6f6b5f616d6f756e74f93c0066676c6f62616cb26d77686974655f62616c616e636566417353686f74686578706f73757265f9000068636f6e7472617374f94b006a686967686c6967687473f9cf0067736861646f7773f9490066776869746573f9c80066626c61636b73f9c6006a746f6e655f6375727665a563726762a166706f696e747384a26178f900006179fa3d23d70aa26178fa3e8f5c296179fa3e851eb8a26178fa3f28f5c36179fa3f3851eca26178f93c006179fa3f75c28f6172a166706f696e747382a26178f900006179f90000a26178f93c006179f93c006167a166706f696e747382a26178f900006179f90000a26178f93c006179f93c006162a166706f696e747382a26178f900006179f90000a26178f93c006179f93c006a706172616d6574726963a56a686967686c6967687473f90000666c6967687473f90000656461726b73f9000067736861646f7773f900006673706c69747383f93400f93800f93a006368736ca16562616e647388a363687565f9000063736174f90000636c756df90000a363687565f9000063736174f9cc00636c756df9c600a363687565f9000063736174f9cd80636c756df90000a363687565f9000063736174f9ce00636c756df9c800a363687565f9000063736174f94900636c756df9c800a363687565f9000063736174f94b00636c756df9c900a363687565f9000063736174f90000636c756df90000a363687565f9000063736174f90000636c756df900006b636f6c6f725f6772616465a667736861646f7773a363687565f95af063736174f94f80636c756df9c200686d6964746f6e6573a363687565f9000063736174f90000636c756df900006a686967686c6967687473a363687565f95a6063736174f94b00636c756df9400066676c6f62616ca363687565f9000063736174f90000636c756df9000065626c656e64f952e06762616c616e6365f94a006974726561746d656e7465436f6c6f72626277a1677765696768747388f90000f90000f90000f90000f90000f90000f90000f900006876696272616e6365f9c4006a73617475726174696f6ef9c8006870726573656e6365a367636c6172697479f94d806774657874757265f94e0066646568617a65f9c9006664657461696ca2677368617270656ea466616d6f756e74f9000066726164697573f93c006664657461696cf90000676d61736b696e67f90000626e72a4646c756d61f900006b6c756d615f64657461696cf90000666368726f6d61f900006d6368726f6d615f64657461696cf90000666f7074696373a46c6c656e735f70726f66696c65f6626361f46864656672696e6765f900006d7669676e657474655f636f7272f900006765666665637473a371706f737463726f705f7669676e65747465a566616d6f756e74f90000686d6964706f696e74f9524069726f756e646e657373f900006766656174686572f952406a686967686c6967687473f9000065677261696ea366616d6f756e74f900006473697a65f9000069726f7567686e657373f900006c63726561746976655f6c7574f66867656f6d65747279a56463726f70a4646c656674f9000063746f70f90000657269676874f93c0066626f74746f6df93c0065616e676c65f9000064666c6970644e6f6e656775707269676874634f6666697472616e73666f726da768766572746963616cf900006a686f72697a6f6e74616cf9000066726f74617465f9000066617370656374f90000657363616c65f9000068785f6f6666736574f9000068795f6f6666736574f90000656d61736b7380677265746f75636880686c625f6578747261a06f786d705f706173737468726f756768a0</lb:RecipeCbor>
   <lb:Schema>1</lb:Schema>
  </rdf:Description>
 </rdf:RDF>
</x:xmpmeta>
<?xpacket end="w"?>