crates/lightbox-edit/tests/fixtures/golden_to_xmp.xmp
<?xpacket begin="﻿" id="W5M0MpCehiHzreSzNTczkc9d"?>
<x:xmpmeta xmlns:x="adobe:ns:meta/" x:xmptk="Lightbox XMP (fallback substrate)">
 <rdf:RDF xmlns:rdf="http://www.w3.org/1999/02/22-rdf-syntax-ns#">
  <rdf:Description rdf:about=""
   xmlns:lb="http://lightbox.app/ns/1.0/"
   xmlns:crs="http://ns.adobe.com/camera-raw-settings/1.0/">
   <crs:CameraProfile>Camera Standard</crs:CameraProfile>
   <crs:Clarity2012>12</crs:Clarity2012>
   <crs:Contrast2012>15</crs:Contrast2012>
   <crs:CropAngle>2.5</crs:CropAngle>
   <crs:CropBottom>0.95</crs:CropBottom>
   <crs:CropLeft>0.05</crs:CropLeft>
   <crs:CropRight>0.95</crs:CropRight>
   <crs:CropTop>0.05</crs:CropTop>
   <crs:Exposure2012>0.75</crs:Exposure2012>
   <crs:HasCrop>True</crs:HasCrop>
   <crs:Highlights2012>-40</crs:Highlights2012>
   <crs:HueAdjustmentRed>10</crs:HueAdjustmentRed>
   <crs:ProcessVersion>11.0</crs:ProcessVersion>
   <crs:Shadows2012>30</crs:Shadows2012>
   <crs:Temperature>5200</crs:Temperature>
   <crs:Tint>8</crs:Tint>
   <crs:ToneCurvePV2012>
    <rdf:Seq>
     <rdf:li>0, 0</rdf:li>
     <rdf:li>128, 140</rdf:li>
     <rdf:li>255, 255</rdf:li>
    </rdf:Seq>
   </crs:ToneCurvePV2012>
   <crs:Version>15.0</crs:Version>
   <crs:Vibrance>10</crs:Vibrance>
   <crs:WhiteBalance>Custom</crs:WhiteBalance>
   <lb:CreatorTool>Lightbox test-fixed 0.0.0</lb:CreatorTool>
   <lb:ProcessVersion>1</lb:ProcessVersion>
   <lb:RecipeCbor>CBOR:1427bytes</lb:RecipeCbor>
   <lb:Schema>1</lb:Schema>
  </rdf:Description>
 </rdf:RDF>
</x:xmpmeta>
<?xpacket end="w"?>