crates/lightbox-edit/tests/fixtures/lr_legacy_pv2.xmp
<?xpacket begin="﻿" id="W5M0MpCehiHzreSzNTczkc9d"?>
<x:xmpmeta xmlns:x="adobe:ns:meta/" x:xmptk="hand-authored E09 fixture (not Adobe data)">
 <rdf:RDF xmlns:rdf="http://www.w3.org/1999/02/22-rdf-syntax-ns#">
  <rdf:Description rdf:about=""
    xmlns:crs="http://ns.adobe.com/camera-raw-settings/1.0/"
    xmlns:dc="http://purl.org/dc/elements/1.1/"
    crs:Version="6.6"
    crs:ProcessVersion="5.7"
    crs:Exposure="+0.50"
    crs:Brightness="+25"
    crs:Contrast="+10"
    crs:Saturation="20"
    crs:CameraProfile="Adobe Standard">
   <dc:subject>
    <rdf:Bag>
     <rdf:li>legacy</rdf:li>
    </rdf:Bag>
   </dc:subject>
  </rdf:Description>
 </rdf:RDF>
</x:xmpmeta>
<?xpacket end="w"?>
