crates/lightbox-edit/tests/fixtures/lr_modern_pv2012.xmp
<?xpacket begin="﻿" id="W5M0MpCehiHzreSzNTczkc9d"?>
<x:xmpmeta xmlns:x="adobe:ns:meta/" x:xmptk="hand-authored E09 fixture (not Adobe data)">
 <rdf:RDF xmlns:rdf="http://www.w3.org/1999/02/22-rdf-syntax-ns#">
  <rdf:Description rdf:about=""
    xmlns:crs="http://ns.adobe.com/camera-raw-settings/1.0/"
    xmlns:dc="http://purl.org/dc/elements/1.1/"
    xmlns:lr="http://ns.adobe.com/lightroom/1.0/"
    xmlns:xmp="http://ns.adobe.com/xap/1.0/"
    crs:Version="15.5"
    crs:ProcessVersion="11.0"
    crs:WhiteBalance="Custom"
    crs:Temperature="5200"
    crs:Tint="8"
    crs:Exposure2012="+0.75"
    crs:Contrast2012="15"
    crs:Highlights2012="-40"
    crs:Shadows2012="30"
    crs:Whites2012="10"
    crs:Blacks2012="-5"
    crs:Texture="8"
    crs:Clarity2012="12"
    crs:Dehaze="20"
    crs:Vibrance="10"
    crs:Saturation="-5"
    crs:Sharpness="45"
    crs:SharpenRadius="1.2"
    crs:SharpenDetail="30"
    crs:SharpenEdgeMasking="20"
    crs:LuminanceSmoothing="25"
    crs:ColorNoiseReduction="30"
    crs:HueAdjustmentRed="10"
    crs:SaturationAdjustmentBlue="-20"
    crs:ConvertToGrayscale="False"
    crs:AutoLateralCA="True"
    crs:CameraProfile="Camera Standard"
    crs:HasCrop="True"
    crs:CropTop="0.05"
    crs:CropLeft="0.05"
    crs:CropBottom="0.95"
    crs:CropRight="0.95"
    crs:CropAngle="2.5"
    xmp:Rating="4">
   <crs:ToneCurvePV2012>
    <rdf:Seq>
     <rdf:li>0, 0</rdf:li>
     <rdf:li>128, 140</rdf:li>
     <rdf:li>255, 255</rdf:li>
    </rdf:Seq>
   </crs:ToneCurvePV2012>
   <!-- Real LR writes this as an rdf:Seq of rdf:parseType="Resource" structs;
        the fallback substrate models only simple-string arrays (deviations D-4),
        so the fixture uses opaque string items. E09 skips-and-preserves it. -->
   <crs:MaskGroupBasedCorrections>
    <rdf:Seq>
     <rdf:li>mask-group-0-opaque</rdf:li>
    </rdf:Seq>
   </crs:MaskGroupBasedCorrections>
   <dc:rights>© 2026 Test Fixture (CC0)</dc:rights>
   <dc:subject>
    <rdf:Bag>
     <rdf:li>landscape</rdf:li>
     <rdf:li>sunset</rdf:li>
    </rdf:Bag>
   </dc:subject>
   <lr:hierarchicalSubject>
    <rdf:Bag>
     <rdf:li>Places|Iceland</rdf:li>
    </rdf:Bag>
   </lr:hierarchicalSubject>
  </rdf:Description>
 </rdf:RDF>
</x:xmpmeta>
<?xpacket end="w"?>
