crates/lightbox-edit/tests/fixtures/lr_split_toning_pv2012.xmp
<?xpacket begin="﻿" id="W5M0MpCehiHzreSzNTczkc9d"?>
<x:xmpmeta xmlns:x="adobe:ns:meta/" x:xmptk="hand-authored E10 fixture (not Adobe data)">
 <rdf:RDF xmlns:rdf="http://www.w3.org/1999/02/22-rdf-syntax-ns#">
  <rdf:Description rdf:about=""
    xmlns:crs="http://ns.adobe.com/camera-raw-settings/1.0/"
    crs:Version="9.4"
    crs:ProcessVersion="6.7"
    crs:Exposure2012="+0.25"
    crs:Contrast2012="5"
    crs:SplitToningShadowHue="210"
    crs:SplitToningShadowSaturation="25"
    crs:SplitToningHighlightHue="45"
    crs:SplitToningHighlightSaturation="20"
    crs:SplitToningBalance="-15"
    crs:CameraProfile="Adobe Standard">
  </rdf:Description>
 </rdf:RDF>
</x:xmpmeta>
<?xpacket end="w"?>
